!!!COM:	Martini, Johannes
!!!CDT:	~1440///-~1497//
!!!OTL:	Ecce quam bonum
!!!AGN:	Motet
!!!SCT:	Mar2042
!!!SCA:	Mar2042
!!!voices:	2
**kern	**kern
*staff2	*staff1
*Ivox	*Ivox
*I"Tenor	*I"Superius
*I'T	*I'S
*>[A,B,C,D,E,F]	*>[A,B,C,D,E,F]
*>A	*>A
*clefGv2	*clefG2
*k[]	*k[]
*M2/1	*M2/1
*met(C)	*met(C)
!!section: Habitare fratres
!!!OMD: Habitare fratres
=1-	=1-
!!LO:TX:Z=8:t=Choir 1
2A/	2a/
2A/	2a/
1c	1a
=2	=2
1c	1a
1c	1a
=3	=3
2B\	2g/
2A/	2f/
1B	1g
=4	=4
0Al	0al
=5||	=5||
*>B	*>B
!!section: Sicut unguentum
!!!OMD: Sicut unguentum
!!LO:TX:Z=8:t=Choir 2
2c\	2a/
2c\	2a/
2c\	2a/
2c\	2a/
=6	=6
1c	1a
1c	1a
=7	=7
2c\	2a/
2c\	2a/
1A	1a
=8	=8
1r	1r
1c	1a
=9	=9
2c\	2a/
2c\	2a/
1c	1a
=10	=10
1c	1a
2c\	2a/
2c\	2a/
=11	=11
2B\	2g/
2A/	2f/
1B	1g
=12	=12
0Al	0al
=13||	=13||
*>C	*>C
!!LO:TX:Z=8:t=Choir 1
!!section: Quod descendit in horam
!!!OMD: Quod descendit in horam
1c	1a
2c\	2a/
2c\	2a/
=14	=14
1c	1a
1c	1a
=15	=15
2c\	2a/
2c\	2a/
2c\	2a/
2c\	2a/
=16	=16
2c\	2a/
2c\	2a/
1c	1a
=17	=17
1A	1a
1r	1r
=18	=18
2c\	2a/
2c\	2a/
2c\	2a/
2c\	2a/
=19	=19
1c	1a
2c\	2a/
2c\	2a/
=20	=20
1c	1a
1B	1g
=21	=21
2A/	2f/
1d	1b-i
2c\	[2a/
=22	=22
1B-i	2a/]
.	2g/
1Al	1al
=23||	=23||
*>D	*>D
!!LO:TX:Z=8:t=Choir 2
!!section: Quoniam illic
!!!OMD: Quoniam illic
1c	1a
2c\	2a/
2c\	2a/
=24	=24
2c\	2a/
2c\	2a/
2c\	2a/
2c\	2a/
=25	=25
1c	1a
2c\	2a/
2c\	2a/
=26	=26
1c	1a
2B\	2g/
2c\	2a/
=27	=27
2d\	2b-i\
2A/	1a
1B-i	.
.	2g/
=28	=28
1A	1a
1r	1r
=29	=29
1c	1a
1c	2a/
.	2a/
=30	=30
2c\	2a/
2B\	2g/
2A/	2f/
[2d\	[2b-i\
=31	=31
2d\]	2b-\]
2c\	1a
1B-i	.
.	2g/
=32	=32
0Al	0al
=33||	=33||
*>E	*>E
!!LO:TX:Z=8:t=Choir 1
!!section: Gloria Patri
!!!OMD: Gloria Patri
1A	1a
2c\	2a/
2c\	2a/
=34	=34
1c	1a
2c\	2a/
2c\	2a/
=35	=35
2c\	2a/
2c\	2a/
1A	1a
=36	=36
1r	1r
2c\	2a/
2c\	2a/
=37	=37
2c\	2a/
2c\	2a/
1c	1a
=38	=38
2B-i\	2g/
2A/	2f/
1B-i	1g
=39	=39
0Al	0al
=40||	=40||
*>F	*>F
!!LO:TX:Z=8:t=Choir 2
!!section: Sicut erat
!!!OMD: Sicut erat
2c\	2a/
2c\	2a/
2c\	2a/
2c\	2a/
=41	=41
2c\	2a/
2c\	2a/
2c\	2a/
2c\	2a/
=42	=42
1c	1a
2A/	2a/
[2d\	[2b-i\
=43	=43
2d\]	2b-\]
2c\	1a
1B-i	.
.	2g/
=44	=44
1A	1a
1r	1r
=45	=45
2c\	2a/
2c\	2a/
2c\	2a/
2c\	2a/
=46	=46
1c	1a
1B	1g
=47	=47
2A/	2f/
2G/	2g/
2A/	2f/
[2d\	[2b-i\
=48	=48
4d\]	4b-\]
4c\	4a/
2A/	1a
1B-i	.
.	2g/
=49	=49
0Al	0al
==	==
*-	*-
!!!RDF**kern: l=long note in original notation
!!!RDF**kern: i=editorial accidental
!!!ENC:	Chris Gage 02-20-2014
!!!END:	2014/10/05/
!!!EED:	Jesse Rodin
!!!EEV:	2014/10/17/
!!!ONB:	Translated from MusicXML and edited on 2014/10/17/ by Craig Sapp
!!muse2ps: C^@{COM}^i2I150v85,150c240
